X:11
T:The Merry Blacksmith
M:C
K:D
L:1/8
d2 dA BAFA|ABdA BAFA|ABde f2 ed|Beed egfe|
d2 dA BAFA|DAFA BAFA|ABde f2 ed |1 BABc d3 A :|2 BABc d2 f2 |
|: a2 ag f2 fe|d2 dA BAFA|ABde f2 ed|Beed efge|
a2 ag f2 fe|dcdA BAFA|ABde f2 ed|1 BABc d3 f :|2 BABc d2 z2 ||
